X: 12593
T: Farewell To The Dene
R: barndance
M: 4/4
K: Dmajor
|:A>G|F<Ad>e f2 A>d|f<ag>e B2 e>d|c>de>f g>eB>c|(3dfe (3dcB A2 A>G|
F<Ad>e f2- f>d|f<ag>e B2- B>d|c2 (3def g<ea>g|f<ad>c d2:|
|:f>g|a>Aa>g f2- f>d|f>gf<e d2- d>B|G>AB<d A>df<a|A>dg<f e2 (3efg|
a2 a<g f2 A>d|f>gf<e d2 c>d|G2 (3Bcd c<Aa>g|f<ad>c d2:|

